public/images/icons/chakra/anahata.svg

<svg xmlns="http://www.w3.org/2000/svg" width="48" height="48" viewBox="0 0 48 48"><g fill="none" stroke="#0f0" stroke-width="2"><circle cx="24" cy="24" r="5.5"/><path d="M24 18.5c-1.2-2.3-1.2-6.5 0-9.5 1.2 3 1.2 7.2 0 9.5Zm2.8.3c.5-2.5 2.7-6 4.7-7.6-.5 2.6-2.5 5.8-4.7 7.6Zm2.4 1.4c1.8-2 5.3-3.7 7.8-3.7-1.5 2.3-4.8 4.3-7.8 3.7Zm.3 3.8c2.5-1.5 6.3-1.5 9-.5-2.5 1.7-6.3 2-9 .5Zm-.3 3.8c3-.6 6.3 1.4 7.8 3.7-2.5 0-6-1.7-7.8-3.7Zm-2.4 1.4c2.2 1.8 4.2 5 4.7 7.6-2-1.6-4.2-5.1-4.7-7.6Zm-2.8.3c1.2 2.3 1.2 6.5 0 9.5-1.2-3-1.2-7.2 0-9.5Zm-2.8-.3c-.5 2.5-2.7 6-4.7 7.6.5-2.6 2.5-5.8 4.7-7.6Zm-2.4-1.4c-1.8 2-5.3 3.7-7.8 3.7 1.5-2.3 4.8-4.3 7.8-3.7Zm-.3-3.8c-2.5 1.5-6.3 1.2-9-.5 2.7-1 6.5-1 9 .5Zm.3-3.8c-3 .6-6.3-1.4-7.8-3.7 2.5 0 6 1.7 7.8 3.7Zm2.4-1.4c-2.2-1.8-4.2-5-4.7-7.6 2 1.6 4.2 5.1 4.7 7.6Z"/></g></svg>

<svg xmlns="http://www.w3.org/2000/svg" viewBox="0 0 48 48" width="48" height="48">
  <g fill="none" stroke="#00FF00" stroke-width="2">
    <!-- Central circle -->
    <circle cx="24" cy="24" r="5.5"/>
    <!-- 12-petal lotus (Heart chakra) - petals at 30 degree intervals -->
    <path d="M24,18.5 C22.8,16.2 22.8,12 24,9 C25.2,12 25.2,16.2 24,18.5Z"/>
    <path d="M26.8,18.8 C27.3,16.3 29.5,12.8 31.5,11.2 C31,13.8 29,17 26.8,18.8Z"/>
    <path d="M29.2,20.2 C31,18.2 34.5,16.5 37,16.5 C35.5,18.8 32.2,20.8 29.2,20.2Z"/>
    <path d="M29.5,24 C32,22.5 35.8,22.5 38.5,23.5 C36,25.2 32.2,25.5 29.5,24Z"/>
    <path d="M29.2,27.8 C32.2,27.2 35.5,29.2 37,31.5 C34.5,31.5 31,29.8 29.2,27.8Z"/>
    <path d="M26.8,29.2 C29,31 31,34.2 31.5,36.8 C29.5,35.2 27.3,31.7 26.8,29.2Z"/>
    <path d="M24,29.5 C25.2,31.8 25.2,36 24,39 C22.8,36 22.8,31.8 24,29.5Z"/>
    <path d="M21.2,29.2 C20.7,31.7 18.5,35.2 16.5,36.8 C17,34.2 19,31 21.2,29.2Z"/>
    <path d="M18.8,27.8 C17,29.8 13.5,31.5 11,31.5 C12.5,29.2 15.8,27.2 18.8,27.8Z"/>
    <path d="M18.5,24 C16,25.5 12.2,25.2 9.5,23.5 C12.2,22.5 16,22.5 18.5,24Z"/>
    <path d="M18.8,20.2 C15.8,20.8 12.5,18.8 11,16.5 C13.5,16.5 17,18.2 18.8,20.2Z"/>
    <path d="M21.2,18.8 C19,17 17,13.8 16.5,11.2 C18.5,12.8 20.7,16.3 21.2,18.8Z"/>
  </g>
</svg>
